X: 19
T:Father Francis Cameron
M:4/4
L:1/8
C:John Campbell
Q:300
K:G
E2|:
"G"~G2BG "C"ECCE|"G"DG,B,D "C"~E2CE|"G"DGBG "Em"d2 BG | "D7"ADFA c2 BA|
"G"~G2BG "C"ECCE|"G"DG,B,D "C"~E2CE|"G"DGBd "Em" cBce |"D7"dBcA "G"G2z2
:|
Bc |
"G"d2BG dGBd |"C" e2cA "Am"eAce | "G"dgfa "Em"gdBG |"D7"ADFA c2Bc|
"G"d2BG dGBd |"C" e2cA "Am"eAce | "G"dgfa "Em"gdBG |"D7"ADFA "G"G2z2 |
